!! 00000] TT[
!!!OTL: Zou xikou
!!!ARE: Neimeng
!! MM
!! Ethnic Group: Menggu,
!!!SCT: C1306
!!!YEM: Copyright 1995, estate of Helmut Schaffrath.
**kern
*ICvox
*Ivox
*M4/4
*k[]
*C:
{8.cc
16cc
8cc
16cc
16a
8ff
16gg
16aa
16gg
16ff
8dd
=1
4cc
16b-
16cc
8dd
2cc}
=2
{8ff
8dd
8.ff
16dd
16cc
16cc
8ff
8a
8g
=3
4.f
16d
16c
2f}
=4
{8.g
16a
2cc
8.ff
16dd
=5
8.cc
16ff
8a
8g
8cc
4f
8g}
=6
{8.b-
16g
8b-
8cc
8g
8f
8f
8d
=7
8d
4c
8d
2c}
==
!!!AGN: Liebeslied
!! Verzierung
!!    Pinyin-Text der ersten Strophe vorhanden!
!!!ONB: ESAC (Essen Associative Code) Database: CHINA
!!!AMT: simple quadruple
!!!AIN: vox
!!!EED: Helmut Schaffrath
!!!EEV: 1.0
*-
